X:307
T:Moonshine Stomp 
C:by: D. Childers
N:Transcribed by David Childers
R:bluegrass
L:1/8
Q:1/4=120
M:4/4
K:D
|: [f/d/][f/d/][f/d/][f/d/] [f/d/][f/d/][f/d/][f/d/] [e/=c/][e/B/][e/A/]D/ E/F/[eA] | 
[f/d/][f/d/][f/d/][f/d/] [f/d/][f/d/][f/d/][f/d/] [e=c][eB] [e2A2] | [f/d/][f/d/][f/d/][f/d/] [f/d/][f/d/][f/d/][f/d/] [e/=c/][e/B/][e/A/]D/ E/F/[eA] | 
|1 a/f/e/d/ B/A/F/E/ D/A,/A,/B,/ D2 :|2 a/f/e/d/ B/A/F/E/ D/A,/A,/B,/ DD | EF [B/G/][B/G/][B/G/][B/G/] [B/G/][B/G/][B/G/][B/G/] [BG][BG] | 
[AF][AE] [AD][AD] [AF][AE] [AD]D/=F/ | =F/F/^F [c/A/][c/A/][c/A/][c/A/] [c/A/][c/A/][c/A/][c/A/] [cA][cA] | 
[cA][=c^G] [B=G][B/G/][B/G/] [B/G/][B/G/][B/G/][B/G/] [B/G/][B/G/]G/G/ | F/D/E/F/ D(3dB A/F/E D2 | 
a/f/e/d/ B/A/F/E/ D/A,/A,/B,/ DD | EF e/a/b/d'/ b/a/g/e/ d/B/d/e/ | dd/d/ f/e/d/e/ dd/B/ d/d/e/B/ | 
d/e/e/f/ e/a/e/f/ e/a/a/f/ e/f/e/d/ | d/d/e/g/ d/g/e/d/ d/g/g/e/ d/g/e/d/ | B/d/B/A/ F/E/D z4 | 
a/f/e/d/ B/A/F/E/ D/A,/A,/B,/ Dz | 


